src/main/resources/icons/AllIcons/nodes/cvs_global.svg

<!-- Copyright 2000-2021 JetBrains s.r.o. Use of this source code is governed by the Apache 2.0 license that can be found in the LICENSE file. -->
<svg xmlns="http://www.w3.org/2000/svg" width="16" height="16" viewBox="0 0 16 16">
  <g fill="none" fill-rule="evenodd">
    <polygon fill="#D9A343" points="15 12 12 9 12 7 15 4 14 8"/>
    <path fill="#D9A343" d="M7,3.0215 C6.117,3.0215 5.281,3.1835 4.526,3.4685 C6.576,4.2615 8,5.9855 8,7.9895 C8,10.0105 6.552,11.7485 4.474,12.5325 C5.243,12.8295 6.096,13.0005 7,13.0005 C10.313,13.0005 13,10.7665 13,8.0105 C13,5.2545 10.313,3.0215 7,3.0215"/>
    <polygon fill="#D9A343" points="8 12.707 10 11 11 15"/>
    <path fill="#D9A343" d="M4,8 C3.448,8 3,7.553 3,7 C3,6.448 3.448,6 4,6 C4.552,6 5,6.448 5,7 C5,7.553 4.552,8 4,8 M7,7.989 C7,6.129 5.388,4.574 3.224,4.136 C1.868,5.05 1,6.445 1,8.011 C1,8.35 1.042,8.681 1.119,9 L3.5,9 C3.775,9 4,9.226 4,9.5 C4,9.775 3.775,10 3.5,10 L1.499,10 C1.878,10.724 2.456,11.359 3.177,11.855 C5.365,11.431 7,9.864 7,7.989"/>
    <polygon fill="#D9A343" points="9 4 7 3 9 1"/>
  </g>
</svg>

<svg xmlns="http://www.w3.org/2000/svg" width="16" height="16" viewBox="0 0 16 16"><rect id="frame" width="16" height="16" fill="none"/><g fill="#D9A343" fill-rule="evenodd"><path d="M15 12l-3-3V7l3-3-1 4z"/><path d="M7 3.022c-.883 0-1.719.162-2.474.447C6.576 4.26 8 5.986 8 7.989c0 2.022-1.448 3.76-3.526 4.544A7.004 7.004 0 0 0 7 13c3.313 0 6-2.234 6-4.99 0-2.756-2.687-4.99-6-4.99"/><path d="M8 12.707L10 11l1 4z"/><path d="M4 8a1 1 0 1 1 0-2 1 1 0 0 1 0 2m3-.011c0-1.86-1.612-3.415-3.776-3.853C1.868 5.05 1 6.445 1 8.011c0 .339.042.67.119.989H3.5c.275 0 .5.226.5.5 0 .275-.225.5-.5.5H1.499a5.204 5.204 0 0 0 1.678 1.855C5.365 11.431 7 9.864 7 7.989"/><path d="M9 4L7 3l2-2z"/></g></svg>
